SVG_Azure_All/Relay.svg

<?xml version="1.0" encoding="UTF-8" standalone="no"?>
<!-- Generated by Microsoft Visio, SVG Export Relay.svg Page-1 -->

<svg
   xmlns:dc="http://purl.org/dc/elements/1.1/"
   xmlns:cc="http://creativecommons.org/ns#"
   xmlns:rdf="http://www.w3.org/1999/02/22-rdf-syntax-ns#"
   xmlns:svg="http://www.w3.org/2000/svg"
   xmlns="http://www.w3.org/2000/svg"
   xmlns:xlink="http://www.w3.org/1999/xlink"
   xmlns:sodipodi="http://sodipodi.sourceforge.net/DTD/sodipodi-0.dtd"
   xmlns:inkscape="http://www.inkscape.org/namespaces/inkscape"
   width="0.78752989in"
   height="0.70865995in"
   viewBox="0 0 56.702043 51.0235"
   xml:space="preserve"
   class="st6"
   version="1.1"
   id="svg102"
   sodipodi:docname="Relay.svg"
   style="font-size:12px;overflow:visible;color-interpolation-filters:sRGB;fill:none;fill-rule:evenodd;stroke-linecap:square;stroke-miterlimit:3"
   inkscape:version="0.92.5 (2060ec1f9f, 2020-04-08)"><metadata
   id="metadata106"><rdf:RDF><cc:Work
       rdf:about=""><dc:format>image/svg+xml</dc:format><dc:type
         rdf:resource="http://purl.org/dc/dcmitype/StillImage" /></cc:Work></rdf:RDF></metadata><sodipodi:namedview
   pagecolor="#ffffff"
   bordercolor="#666666"
   borderopacity="1"
   objecttolerance="10"
   gridtolerance="10"
   guidetolerance="10"
   inkscape:pageopacity="0"
   inkscape:pageshadow="2"
   inkscape:window-width="640"
   inkscape:window-height="480"
   id="namedview104"
   showgrid="false"
   inkscape:zoom="1.4869072"
   inkscape:cx="37.798666"
   inkscape:cy="34.006413"
   inkscape:window-x="0"
   inkscape:window-y="0"
   inkscape:window-maximized="0"
   inkscape:current-layer="svg102" />
	<style
   type="text/css"
   id="style2">
	<![CDATA[
		.st1 {fill:#949494;stroke:none;stroke-linecap:butt;stroke-width:34}
		.st2 {fill:#86d633;stroke:none;stroke-linecap:butt;stroke-width:34}
		.st3 {fill:url(#grad0-10);stroke:none;stroke-linecap:butt;stroke-width:34}
		.st4 {fill:#999999;stroke:none;stroke-linecap:butt;stroke-width:34}
		.st5 {fill:#999999;fill-opacity:0.5;stroke:none;stroke-linecap:butt;stroke-width:34}
		.st6 {fill:none;fill-rule:evenodd;font-size:12px;overflow:visible;stroke-linecap:square;stroke-miterlimit:3}
	]]>
	</style>

	<defs
   id="Patterns_And_Gradients">
		<linearGradient
   id="grad0-10"
   x1="0"
   y1="0"
   x2="1"
   y2="0"
   gradientTransform="rotate(-90,0.5,0.5)">
			<stop
   offset="0"
   stop-color="#6f4bb2"
   stop-opacity="1"
   id="stop4" />
			<stop
   offset="1"
   stop-color="#c69aeb"
   stop-opacity="1"
   id="stop6" />
		</linearGradient>
	<linearGradient
   inkscape:collect="always"
   xlink:href="#grad0-10"
   id="linearGradient4616"
   gradientTransform="scale(0.9947932,1.0052341)"
   x1="0"
   y1="108.10063"
   x2="10.319109"
   y2="108.10063"
   gradientUnits="userSpaceOnUse" /><linearGradient
   inkscape:collect="always"
   xlink:href="#grad0-10"
   id="linearGradient4618"
   gradientTransform="scale(0.9947932,1.0052341)"
   x1="0"
   y1="108.10063"
   x2="10.319109"
   y2="108.10063"
   gradientUnits="userSpaceOnUse" /></defs>
	<g
   id="g100"
   transform="translate(-34.000109,-34.0008)">
		<title
   id="title10">Page-1</title>
		<g
   id="group2005-1"
   transform="translate(34.0052,-34.0157)">
			<title
   id="title12">Relay</title>
			<g
   id="group2006-2">
				<title
   id="title14">Icon-integration-209</title>
				<g
   id="shape2007-3"
   transform="translate(17.6645,-17.6815)">
					<title
   id="title16">Sheet.2007</title>
					<path
   d="m 21.66,117.76 -9.93,-16.1 -0.9,0.57 -0.86,-0.57 -9.97,16.1 2.03,1.25 8.8,-14.25 8.83,14.28 z"
   class="st1"
   id="path18"
   inkscape:connector-curvature="0"
   style="fill:#949494;stroke:none;stroke-width:34;stroke-linecap:butt" />
				</g>
				<g
   id="shape2008-5"
   transform="translate(23.1971,-29.1997)">
					<title
   id="title21">Sheet.2008</title>
					<ellipse
   cx="5.13269"
   cy="113.853"
   rx="5.13269"
   ry="5.1865602"
   class="st2"
   id="ellipse23"
   style="fill:#86d633;stroke:none;stroke-width:34;stroke-linecap:butt" />
				</g>
				<g
   id="shape2009-7"
   transform="translate(13.2983,-13.2022)">
					<title
   id="title26">Sheet.2009</title>
					<ellipse
   cx="5.13269"
   cy="113.853"
   rx="5.13269"
   ry="5.1865602"
   class="st3"
   id="ellipse28"
   style="fill:url(#linearGradient4616);stroke:none;stroke-width:34;stroke-linecap:butt" />
				</g>
				<g
   id="shape2010-11"
   transform="translate(33.1292,-13.2022)">
					<title
   id="title31">Sheet.2010</title>
					<ellipse
   cx="5.13269"
   cy="113.853"
   rx="5.13269"
   ry="5.1865602"
   class="st3"
   id="ellipse33"
   style="fill:url(#linearGradient4618);stroke:none;stroke-width:34;stroke-linecap:butt" />
				</g>
				<g
   id="group2011-14"
   transform="translate(0,-37.9225)">
					<title
   id="title36">Sheet.2011</title>
					<g
   id="shape2012-15">
						<title
   id="title38">Sheet.2012</title>
						<path
   d="m 1.9,105.94 h 4.3 v 12.12 a 0.966546,0.97669 0 0 1 -0.966546,0.97669 L 0.97,119.04 A 0.966546,0.97669 0 0 1 0.003454,118.06331 L 0,107.96 a 1.89976,1.9197 0 0 1 1.9,-2.02 z"
   class="st4"
   id="path40"
   inkscape:connector-curvature="0"
   style="fill:#999999;stroke:none;stroke-width:34;stroke-linecap:butt" />
					</g>
					<g
   id="shape2013-17">
						<title
   id="title43">Sheet.2013</title>
						<path
   d="m 1.9,105.94 h 4.3 v 12.12 a 0.966546,0.97669 0 0 1 -0.966546,0.97669 L 0.97,119.04 A 0.966546,0.97669 0 0 1 0.003454,118.06331 L 0,107.96 a 1.89976,1.9197 0 0 1 1.9,-2.02 z"
   class="st5"
   id="path45"
   inkscape:connector-curvature="0"
   style="fill:#999999;fill-opacity:0.5;stroke:none;stroke-width:34;stroke-linecap:butt" />
					</g>
				</g>
				<g
   id="group2014-19"
   transform="translate(50.427,-38.0235)">
					<title
   id="title49">Sheet.2014</title>
					<g
   id="shape2015-20">
						<title
   id="title51">Sheet.2015</title>
						<path
   d="M 0.03,106.04 H 4.3 a 1.89976,1.9197 0 0 1 1.9,1.92 v 10.1 a 0.966546,0.97669 0 0 1 -0.966546,0.97669 L 0.97,119.04 A 0.966546,0.97669 0 0 1 0.003454,118.06331 L 0,106.04 Z"
   class="st4"
   id="path53"
   inkscape:connector-curvature="0"
   style="fill:#999999;stroke:none;stroke-width:34;stroke-linecap:butt" />
					</g>
					<g
   id="shape2016-22">
						<title
   id="title56">Sheet.2016</title>
						<path
   d="M 0.03,106.04 H 4.3 a 1.89976,1.9197 0 0 1 1.9,1.92 v 10.1 a 0.966546,0.97669 0 0 1 -0.966546,0.97669 L 0.97,119.04 A 0.966546,0.97669 0 0 1 0.003454,118.06331 L 0,106.04 Z"
   class="st5"
   id="path58"
   inkscape:connector-curvature="0"
   style="fill:#999999;fill-opacity:0.5;stroke:none;stroke-width:34;stroke-linecap:butt" />
					</g>
				</g>
				<g
   id="shape2017-24"
   transform="translate(0,-44.8604)">
					<title
   id="title62">Sheet.2017</title>
					<path
   d="m 56.66,114.8 v 4.24 H 0 v -4.24 a 1.89976,1.9197 0 0 1 1.9,-1.92 h 52.86 a 1.89976,1.9197 0 0 1 1.9,1.92 z"
   class="st1"
   id="path64"
   inkscape:connector-curvature="0"
   style="fill:#949494;stroke:none;stroke-width:34;stroke-linecap:butt" />
				</g>
				<g
   id="group2018-26"
   transform="translate(0,-0.033679)">
					<title
   id="title67">Sheet.2018</title>
					<g
   id="shape2019-27">
						<title
   id="title69">Sheet.2019</title>
						<path
   d="m 0.97,105.94 h 4.3 a 0.966546,0.97669 0 0 1 0.966546,0.97669 L 6.23,119.04 H 1.9 A 1.89976,1.9197 0 0 1 0,117.12 v -10.1 a 0.966546,0.97669 0 0 1 0.966546,-1.07773 z"
   class="st4"
   id="path71"
   inkscape:connector-curvature="0"
   style="fill:#999999;stroke:none;stroke-width:34;stroke-linecap:butt" />
					</g>
					<g
   id="shape2020-29">
						<title
   id="title74">Sheet.2020</title>
						<path
   d="m 0.97,105.94 h 4.3 a 0.966546,0.97669 0 0 1 0.966546,0.97669 L 6.23,119.04 H 1.9 A 1.89976,1.9197 0 0 1 0,117.12 v -10.1 a 0.966546,0.97669 0 0 1 0.966546,-1.07773 z"
   class="st5"
   id="path76"
   inkscape:connector-curvature="0"
   style="fill:#999999;fill-opacity:0.5;stroke:none;stroke-width:34;stroke-linecap:butt" />
					</g>
				</g>
				<g
   id="group2021-31"
   transform="translate(50.4604,-0.134716)">
					<title
   id="title80">Sheet.2021</title>
					<g
   id="shape2022-32">
						<title
   id="title82">Sheet.2022</title>
						<path
   d="m 0.93,106.04 h 4.34 a 0.966546,0.97669 0 0 1 0.966546,0.97669 L 6.23,117.12 a 1.89976,1.9197 0 0 1 -1.9,1.92 H 0 v -12.13 a 0.966546,0.97669 0 0 1 0.933217,-0.87565 z"
   class="st4"
   id="path84"
   inkscape:connector-curvature="0"
   style="fill:#999999;stroke:none;stroke-width:34;stroke-linecap:butt" />
					</g>
					<g
   id="shape2023-34">
						<title
   id="title87">Sheet.2023</title>
						<path
   d="m 0.93,106.04 h 4.34 a 0.966546,0.97669 0 0 1 0.966546,0.97669 L 6.23,117.12 a 1.89976,1.9197 0 0 1 -1.9,1.92 H 0 v -12.13 a 0.966546,0.97669 0 0 1 0.933217,-0.87565 z"
   class="st5"
   id="path89"
   inkscape:connector-curvature="0"
   style="fill:#999999;fill-opacity:0.5;stroke:none;stroke-width:34;stroke-linecap:butt" />
					</g>
				</g>
				<g
   id="shape2024-36">
					<title
   id="title93">Sheet.2024</title>
					<path
   d="m 0,117.12 v -4.24 h 56.66 v 4.24 a 1.89976,1.9197 0 0 1 -1.9,1.92 H 1.9 A 1.89976,1.9197 0 0 1 0,117.12 Z"
   class="st1"
   id="path95"
   inkscape:connector-curvature="0"
   style="fill:#949494;stroke:none;stroke-width:34;stroke-linecap:butt" />
				</g>
			</g>
		</g>
	</g>
</svg>

<?xml version="1.0" encoding="UTF-8" standalone="no"?>
<!DOCTYPE svg PUBLIC "-//W3C//DTD SVG 1.1//EN" "http://www.w3.org/Graphics/SVG/1.1/DTD/svg11.dtd">
<!-- Generated by Microsoft Visio, SVG Export Relay.svg Page-1 -->
<svg xmlns="http://www.w3.org/2000/svg" xmlns:xlink="http://www.w3.org/1999/xlink" xmlns:ev="http://www.w3.org/2001/xml-events"
		width="1.73192in" height="1.65332in" viewBox="0 0 124.698 119.039" xml:space="preserve" color-interpolation-filters="sRGB"
		class="st6">
	<style type="text/css">
	<![CDATA[
		.st1 {fill:#949494;stroke:none;stroke-linecap:butt;stroke-width:34}
		.st2 {fill:#86d633;stroke:none;stroke-linecap:butt;stroke-width:34}
		.st3 {fill:url(#grad0-10);stroke:none;stroke-linecap:butt;stroke-width:34}
		.st4 {fill:#999999;stroke:none;stroke-linecap:butt;stroke-width:34}
		.st5 {fill:#999999;fill-opacity:0.5;stroke:none;stroke-linecap:butt;stroke-width:34}
		.st6 {fill:none;fill-rule:evenodd;font-size:12px;overflow:visible;stroke-linecap:square;stroke-miterlimit:3}
	]]>
	</style>

	<defs id="Patterns_And_Gradients">
		<linearGradient id="grad0-10" x1="0" y1="0" x2="1" y2="0" gradientTransform="rotate(-90 0.5 0.5)">
			<stop offset="0" stop-color="#6f4bb2" stop-opacity="1"/>
			<stop offset="1" stop-color="#c69aeb" stop-opacity="1"/>
		</linearGradient>
	</defs>
	<g>
		<title>Page-1</title>
		<g id="group1990-1" transform="translate(34.0052,-34.0157)">
			<title>Relay</title>
			<g id="group1991-2">
				<title>Icon-integration-209</title>
				<g id="shape1992-3" transform="translate(17.6645,-17.6815)">
					<title>Sheet.1992</title>
					<path d="M21.66 117.76 L11.73 101.66 L10.83 102.23 L9.97 101.66 L0 117.76 L2.03 119.01 L10.83 104.76 L19.66 119.04
								 L21.66 117.76 Z" class="st1"/>
				</g>
				<g id="shape1993-5" transform="translate(23.1971,-29.1997)">
					<title>Sheet.1993</title>
					<ellipse cx="5.13269" cy="113.853" rx="5.13269" ry="5.18656" class="st2"/>
				</g>
				<g id="shape1994-7" transform="translate(13.2983,-13.2022)">
					<title>Sheet.1994</title>
					<ellipse cx="5.13269" cy="113.853" rx="5.13269" ry="5.18656" class="st3"/>
				</g>
				<g id="shape1995-11" transform="translate(33.1292,-13.2022)">
					<title>Sheet.1995</title>
					<ellipse cx="5.13269" cy="113.853" rx="5.13269" ry="5.18656" class="st3"/>
				</g>
				<g id="group1996-14" transform="translate(-1.13909E-13,-37.9225)">
					<title>Sheet.1996</title>
					<g id="shape1997-15">
						<title>Sheet.1997</title>
						<path d="M1.9 105.94 L6.2 105.94 L6.2 118.06 a0.966546 0.97669 0 0 1 -0.966546 0.97669 L0.97 119.04 a0.966546
									 0.97669 0 0 1 -0.966546 -0.97669 L0 107.96 A1.89976 1.9197 0 0 1 1.9 105.94 Z" class="st4"/>
					</g>
					<g id="shape1998-17">
						<title>Sheet.1998</title>
						<path d="M1.9 105.94 L6.2 105.94 L6.2 118.06 a0.966546 0.97669 0 0 1 -0.966546 0.97669 L0.97 119.04 a0.966546
									 0.97669 0 0 1 -0.966546 -0.97669 L0 107.96 A1.89976 1.9197 0 0 1 1.9 105.94 Z" class="st5"/>
					</g>
				</g>
				<g id="group1999-19" transform="translate(50.427,-38.0235)">
					<title>Sheet.1999</title>
					<g id="shape2000-20">
						<title>Sheet.2000</title>
						<path d="M0.03 106.04 L4.3 106.04 A1.89976 1.9197 0 0 1 6.2 107.96 L6.2 118.06 a0.966546 0.97669 0 0 1 -0.966546
									 0.97669 L0.97 119.04 a0.966546 0.97669 0 0 1 -0.966546 -0.97669 L0 106.04 L0.03 106.04 Z"
								class="st4"/>
					</g>
					<g id="shape2001-22">
						<title>Sheet.2001</title>
						<path d="M0.03 106.04 L4.3 106.04 A1.89976 1.9197 0 0 1 6.2 107.96 L6.2 118.06 a0.966546 0.97669 0 0 1 -0.966546
									 0.97669 L0.97 119.04 a0.966546 0.97669 0 0 1 -0.966546 -0.97669 L0 106.04 L0.03 106.04 Z"
								class="st5"/>
					</g>
				</g>
				<g id="shape2002-24" transform="translate(0,-44.8604)">
					<title>Sheet.2002</title>
					<path d="M56.66 114.8 L56.66 119.04 L0 119.04 L0 114.8 A1.89976 1.9197 0 0 1 1.9 112.88 L54.76 112.88 A1.89976
								 1.9197 0 0 1 56.66 114.8 Z" class="st1"/>
				</g>
				<g id="group2003-26" transform="translate(1.1291E-13,-0.033679)">
					<title>Sheet.2003</title>
					<g id="shape2004-27">
						<title>Sheet.2004</title>
						<path d="M0.97 105.94 L5.27 105.94 a0.966546 0.97669 0 0 1 0.966546 0.97669 L6.23 119.04 L1.9 119.04 A1.89976
									 1.9197 0 0 1 0 117.12 L0 107.02 a0.966546 0.97669 0 0 1 0.966546 -1.07773 Z" class="st4"/>
					</g>
					<g id="shape2005-29">
						<title>Sheet.2005</title>
						<path d="M0.97 105.94 L5.27 105.94 a0.966546 0.97669 0 0 1 0.966546 0.97669 L6.23 119.04 L1.9 119.04 A1.89976
									 1.9197 0 0 1 0 117.12 L0 107.02 a0.966546 0.97669 0 0 1 0.966546 -1.07773 Z" class="st5"/>
					</g>
				</g>
				<g id="group2006-31" transform="translate(50.4604,-0.134716)">
					<title>Sheet.2006</title>
					<g id="shape2007-32">
						<title>Sheet.2007</title>
						<path d="M0.93 106.04 L5.27 106.04 a0.966546 0.97669 0 0 1 0.966546 0.97669 L6.23 117.12 A1.89976 1.9197
									 0 0 1 4.33 119.04 L0 119.04 L0 106.91 a0.966546 0.97669 0 0 1 0.933217 -0.875653 Z"
								class="st4"/>
					</g>
					<g id="shape2008-34">
						<title>Sheet.2008</title>
						<path d="M0.93 106.04 L5.27 106.04 a0.966546 0.97669 0 0 1 0.966546 0.97669 L6.23 117.12 A1.89976 1.9197
									 0 0 1 4.33 119.04 L0 119.04 L0 106.91 a0.966546 0.97669 0 0 1 0.933217 -0.875653 Z"
								class="st5"/>
					</g>
				</g>
				<g id="shape2009-36">
					<title>Sheet.2009</title>
					<path d="M0 117.12 L0 112.88 L56.66 112.88 L56.66 117.12 A1.89976 1.9197 0 0 1 54.76 119.04 L1.9 119.04 A1.89976
								 1.9197 0 0 1 -0 117.12 Z" class="st1"/>
				</g>
			</g>
		</g>
	</g>
</svg>
